X:239
T:the Inverness Gathering
O:scotland
R:Pipe march
M:4/4
K:Amix
e>c|\
d>c B>c A>B c>A|a2e2 e2(3def|\
g2B>A G>A(3BAG|g2d2 d2e>d|\
d>c B>c A>B c>A|a2e2 e2a2|\
g>e d>B G>B d>B|e2A2 A2::\
g2|\
a>e c>e a>e c>e|a2e2 e2f2|\
g>a g>f g>a g>e|d>c B>A G>A B>d|\
(3cBA a>A (3cBA a>A|a2e2 e2a2|\
g>e d>B G>B d>B|e2A2 A2::\
c2|\
(3AAAa2 (3AAA a2|(3AAA a>g e2d>B|\
(3GGG g2 (3GGG g2|(3GGG g>e d2B>G|\
(3AAA a2 (3AAA a2|(3AAA a>f e2a2|\
g>e d>B G>B d>B|e2A2 A2:|
